assets/icons/magnifying-glass.svg

<!-- Generated by IcoMoon.io -->
<svg version="1.1" xmlns="http://www.w3.org/2000/svg" width="32" height="32" viewBox="0 0 32 32">
<title>magnifying-glass</title>
<path d="M10.5 0c-5.79 0-10.5 4.71-10.5 10.5s4.71 10.5 10.5 10.5c2.725 0 5.203-1.052 7.071-2.76 0.022 0.039 0.042 0.080 0.076 0.114l2.151 2.151c-0.18 0.304-0.282 0.648-0.282 1.011 0 0.534 0.208 1.036 0.586 1.414l8.485 8.485c0.377 0.377 0.879 0.585 1.413 0.585s1.036-0.208 1.414-0.586 0.586-0.88 0.586-1.414-0.208-1.036-0.586-1.414l-8.485-8.485c-0.634-0.634-1.659-0.729-2.42-0.299l-2.155-2.155c-0.034-0.034-0.074-0.054-0.114-0.076 1.708-1.868 2.76-4.346 2.76-7.071 0-5.79-4.71-10.5-10.5-10.5zM22.222 20.808l8.485 8.485c0.189 0.189 0.293 0.44 0.293 0.707s-0.104 0.518-0.293 0.707c-0.379 0.377-1.035 0.377-1.414 0l-8.485-8.485c-0.188-0.189-0.293-0.44-0.293-0.707s0.104-0.518 0.293-0.707c0.189-0.188 0.44-0.293 0.707-0.293s0.517 0.104 0.707 0.293zM10.5 20c-5.238 0-9.5-4.262-9.5-9.5s4.262-9.5 9.5-9.5 9.5 4.262 9.5 9.5-4.262 9.5-9.5 9.5zM10.5 3c-4.136 0-7.5 3.364-7.5 7.5s3.364 7.5 7.5 7.5 7.5-3.364 7.5-7.5-3.364-7.5-7.5-7.5zM10.5 17c-3.584 0-6.5-2.916-6.5-6.5s2.916-6.5 6.5-6.5 6.5 2.916 6.5 6.5-2.916 6.5-6.5 6.5z"></path>
</svg>

<svg xmlns="http://www.w3.org/2000/svg" width="32" height="32"><path d="M10.5 0C4.71 0 0 4.71 0 10.5S4.71 21 10.5 21c2.725 0 5.203-1.052 7.071-2.76.022.039.042.08.076.114l2.151 2.151a1.976 1.976 0 00.304 2.425l8.485 8.485c.377.377.879.585 1.413.585s1.036-.208 1.414-.586S32 30.534 32 30s-.208-1.036-.586-1.414l-8.485-8.485c-.634-.634-1.659-.729-2.42-.299l-2.155-2.155c-.034-.034-.074-.054-.114-.076A10.448 10.448 0 0021 10.5C21 4.71 16.29 0 10.5 0zm11.722 20.808l8.485 8.485c.189.189.293.44.293.707s-.104.518-.293.707a1.025 1.025 0 01-1.414 0l-8.485-8.485a.997.997 0 010-1.414.997.997 0 011.414 0zM10.5 20C5.262 20 1 15.738 1 10.5S5.262 1 10.5 1 20 5.262 20 10.5 15.738 20 10.5 20zm0-17C6.364 3 3 6.364 3 10.5S6.364 18 10.5 18s7.5-3.364 7.5-7.5S14.636 3 10.5 3zm0 14C6.916 17 4 14.084 4 10.5S6.916 4 10.5 4 17 6.916 17 10.5 14.084 17 10.5 17z"/></svg>
